!! 00000] TT[WS
!!!OTL: Kan nangua
!!!ARE: Asia, China,ÿShanxi Zuoquan
!! Ethnic Group: Han
!! WI, 197 (2)
!!!SCT: J0236
!!!YEM: Copyright 1995, estate of Helmut Schaffrath.
**kern
*ICvox
*Ivox
*M2/4
*k[b-e-]
*B-:
{8dd
8cc
4b-
=1
8ff
8cc
4b-
=2
8g
8ff
8dd
8ff
=3
8dd
8cc
4b-}
=4
{8g
8b-
8cc
8ff
=5
8dd
8cc
4b-
=6
8g
8d
8f
8g
=7
8d
8c
4B-}
=8
{8dd
8cc
8dd
8ff
=9
8dd
8cc
8b-
8cc
=10
8a
8g
4f}
=11
{8f
8f
8f
8g
=12
8a
8g
4b-
=13
8g
8f
8f
8g
=14
8d
8c
4B-}
==
!!!AGN: Xiaodiao. Laodong, Zhongzhi
!!!ONB: ESAC (Essen Associative Code) Database: CHINA
!!!AMT: simple duple
!!!AIN: vox
!!!EED: Helmut Schaffrath
!!!EEV: 1.0
*-
